Adwaita++/actions/16/paint-unknown.svg

<svg fill="none" height="16" viewBox="0 0 16 16" width="16" xmlns="http://www.w3.org/2000/svg" xmlns:xlink="http://www.w3.org/1999/xlink">
  <defs>
    <clipPath id="clip0">
      <path d="m0 0h16v16h-16z"/>
    </clipPath>
  </defs>
  <g clip-path="url(#clip0)">
    <path clip-rule="evenodd" d="m8 16c4.4183 0 8-3.5817 8-8 0-4.41828-3.5817-8-8-8-4.41828 0-8 3.58172-8 8 0 4.4183 3.58172 8 8 8zm3.6982-8.41211c.155-.36003.2325-.74284.2325-1.14844s-.0775-.78613-.2325-1.1416c-.1503-.35547-.36-.66536-.6289-.92969-.2643-.26888-.5765-.48079-.9365-.63574-.35546-.15495-.73599-.23242-1.14159-.23242h-4.49121v1.96191h4.49121c.13672 0 .26432.02507.38281.0752s.22103.12077.30762.21191c.09115.08659.16178.18913.21191.30762.05469.11849.08204.24609.08204.38281s-.02735.2666-.08204.38965c-.05013.11849-.12076.22331-.21191.31445-.08659.08659-.18913.15495-.30762.20508s-.24609.0752-.38281.0752c-.41016 0-.78613.07747-1.12793.23242-.3418.15039-.63802.35775-.88867.62207-.24609.25977-.43978.56738-.58106.92285-.13671.35547-.20735.73373-.21191 1.13473v.5469h1.95508v-.5195c0-.1367.01823-.2643.05469-.38283.03645-.11849.08886-.22103.15722-.30762.07292-.09114.16179-.16178.2666-.21191.10938-.05013.2347-.0752.37598-.0752.4056 0 .78613-.07747 1.14159-.23242.36-.15495.6722-.36458.9365-.62891.2689-.26888.4786-.58105.6289-.93652zm-3.45894 5.48241c.0638-.1458.0957-.3008.0957-.4648 0-.1595-.0319-.3099-.0957-.4512-.05925-.1413-.14128-.2643-.2461-.3691-.10481-.1049-.22786-.1869-.36914-.2461-.14127-.0638-.29166-.0957-.45117-.0957-.1595 0-.31217.0319-.45801.0957-.14127.0592-.2666.1412-.37597.2461-.10482.1048-.18913.2278-.25293.3691-.05925.1413-.08887.2917-.08887.4512 0 .164.02962.319.08887.4648.0638.1413.14811.2643.25293.3692.10937.1048.2347.1868.37597.246.14584.0638.29851.0957.45801.0957.15951 0 .3099-.0319.45117-.0957.14128-.0592.26433-.1412.36914-.246.10482-.1049.18685-.2279.2461-.3692z" fill="#444" fill-rule="evenodd"/>
  </g>
</svg>

<svg xmlns="http://www.w3.org/2000/svg" fill="none" width="16" height="16" viewBox="0 0 16 16">
 <g clip-path="url(#clip0)">
  <path fill="#444" fill-rule="evenodd" d="M8 16C12.4183 16 16 12.4183 16 8C16 3.58172 12.4183 0 8 0C3.58172 0 0 3.58172 0 8C0 12.4183 3.58172 16 8 16ZM11.6982 7.58789C11.8532 7.22786 11.9307 6.84505 11.9307 6.43945C11.9307 6.03385 11.8532 5.65332 11.6982 5.29785C11.5479 4.94238 11.3382 4.63249 11.0693 4.36816C10.805 4.09928 10.4928 3.88737 10.1328 3.73242C9.77734 3.57747 9.39681 3.5 8.99121 3.5H4.5V5.46191H8.99121C9.12793 5.46191 9.25553 5.48698 9.37402 5.53711C9.49251 5.58724 9.59505 5.65788 9.68164 5.74902C9.77279 5.83561 9.84342 5.93815 9.89355 6.05664C9.94824 6.17513 9.97559 6.30273 9.97559 6.43945C9.97559 6.57617 9.94824 6.70605 9.89355 6.8291C9.84342 6.94759 9.77279 7.05241 9.68164 7.14355C9.59505 7.23014 9.49251 7.2985 9.37402 7.34863C9.25553 7.39876 9.12793 7.42383 8.99121 7.42383C8.58105 7.42383 8.20508 7.5013 7.86328 7.65625C7.52148 7.80664 7.22526 8.014 6.97461 8.27832C6.72852 8.53809 6.53483 8.8457 6.39355 9.20117C6.25684 9.55664 6.1862 9.9349 6.18164 10.3359V10.8828H8.13672V10.3633C8.13672 10.2266 8.15495 10.099 8.19141 9.98047C8.22786 9.86198 8.28027 9.75944 8.34863 9.67285C8.42155 9.58171 8.51042 9.51107 8.61523 9.46094C8.72461 9.41081 8.84993 9.38574 8.99121 9.38574C9.39681 9.38574 9.77734 9.30827 10.1328 9.15332C10.4928 8.99837 10.805 8.78874 11.0693 8.52441C11.3382 8.25553 11.5479 7.94336 11.6982 7.58789ZM8.23926 13.0703C8.30306 12.9245 8.33496 12.7695 8.33496 12.6055C8.33496 12.446 8.30306 12.2956 8.23926 12.1543C8.18001 12.013 8.09798 11.89 7.99316 11.7852C7.88835 11.6803 7.7653 11.5983 7.62402 11.5391C7.48275 11.4753 7.33236 11.4434 7.17285 11.4434C7.01335 11.4434 6.86068 11.4753 6.71484 11.5391C6.57357 11.5983 6.44824 11.6803 6.33887 11.7852C6.23405 11.89 6.14974 12.013 6.08594 12.1543C6.02669 12.2956 5.99707 12.446 5.99707 12.6055C5.99707 12.7695 6.02669 12.9245 6.08594 13.0703C6.14974 13.2116 6.23405 13.3346 6.33887 13.4395C6.44824 13.5443 6.57357 13.6263 6.71484 13.6855C6.86068 13.7493 7.01335 13.7812 7.17285 13.7812C7.33236 13.7812 7.48275 13.7493 7.62402 13.6855C7.7653 13.6263 7.88835 13.5443 7.99316 13.4395C8.09798 13.3346 8.18001 13.2116 8.23926 13.0703Z" clip-rule="evenodd"/>
 </g>
 <defs>
  <clipPath id="clip0">
   <rect fill="#fff" width="16" height="16"/>
  </clipPath>
 </defs>
</svg>
